migration/src/images/noun_code_2343081 (1) copy.svg

<svg height="100" viewBox="0 0 100 100" width="100" xmlns="http://www.w3.org/2000/svg"><rect fill="#d4ab5a" height="100%" width="100%"/>
<svg fill="#fff" transform="matrix(.69 0 0 .69 15.5 15.5)" viewBox="0 0 16 16" xmlns="http://www.w3.org/2000/svg"><path d="m4.1409 4.2326a1.0022 1.0022 0 0 0 -1.4082.127l-2.5 3a.9975.9975 0 0 0 0 1.2812l2.5 3a1 1 0 0 0 1.5351-1.2812l-1.9667-2.3596 1.9667-2.3592a1 1 0 0 0 -.1269-1.4082z"/><path d="m9.1952 2.02a1.0093 1.0093 0 0 0 -1.1752.785l-2 9.9994a.9974.9974 0 0 0 .7848 1.1756.949.949 0 0 0 .1972.02.9992.9992 0 0 0 .9785-.8046l2-9.9994a.9974.9974 0 0 0 -.7853-1.176z"/><path d="m15.7671 7.3594-2.5-3a1 1 0 1 0 -1.5351 1.2812l1.9669 2.3594-1.9667 2.3592a1 1 0 1 0 1.5351 1.2808l2.5-3a.9975.9975 0 0 0 -.0002-1.2806z"/></svg></svg>

<svg xmlns="http://www.w3.org/2000/svg" xmlns:xlink="http://www.w3.org/1999/xlink" width="100" height="100" viewBox="0 0 100 100"><rect width="100%" height="100%" fill="#d4ab5a"></rect><g transform="translate(50 50) scale(0.69 0.69) rotate(0) translate(-50 -50)" style="fill:#ffffff"><svg fill="#ffffff" xmlns="http://www.w3.org/2000/svg" viewBox="0 0 16 16" x="0px" y="0px"><title>code, coding, html, css, programming</title><g><path d="M4.1409,4.2326a1.0022,1.0022,0,0,0-1.4082.127l-2.5,3a.9975.9975,0,0,0,0,1.2812l2.5,3a1,1,0,0,0,1.5351-1.2812L2.3011,8,4.2678,5.6408A1,1,0,0,0,4.1409,4.2326Z"></path><path d="M9.1952,2.02A1.0093,1.0093,0,0,0,8.02,2.805l-2,9.9994A.9974.9974,0,0,0,6.8048,13.98.949.949,0,0,0,7.002,14a.9992.9992,0,0,0,.9785-.8046l2-9.9994A.9974.9974,0,0,0,9.1952,2.02Z"></path><path d="M15.7671,7.3594l-2.5-3a1,1,0,1,0-1.5351,1.2812L13.6989,8l-1.9667,2.3592A1,1,0,1,0,13.2673,11.64l2.5-3A.9975.9975,0,0,0,15.7671,7.3594Z"></path></g></svg></g></svg>
